X: 1837
T: Are You Willing?
R: reel
M: 4/4
K: Amajor
"A" A2 (EA) "D"FA"A"EA|"A"AAcA "E"BABc|"A"A2 (EA) "D"FA"A"EA|"D"faed "A"cA"E"Bc|
"A"A2 (EA) "D"FA"A"EA|"A"AAcA "E"BABc|"D"defg "A"Tagae|"Bm"fd"E"Be "A"cA A2||
"A"agae "D"Tfe"A"ce|"E7"dB"A"cA "E"BAFA|"A"Tagae "D"fg"A"ae|"Bm"fd"E"Be "A"cAAg|
"A"aece "D"fe"A"ce|"E7"dB"A"cA "E"BAFA|"A"a,cEA ceae|"Bm"fd"E"Be "A"cA A2||
"A" A2 (EA) "D"FA"A"EA|"A"AAcA "E"BABc|"A"A2 (EA) "D"FA"A"EA|"D"faed "A"cA"E"Bc|
"A"A2 (EA) "D"FA"A"EA|"A"AAcA "E"BABc|"D"defg "A"Tagae|"Bm"fd"E"Be "A"cA A2||
"A"agae "D"Tfe"A"ce|"E7"dB"A"cA "E"BAFA|"A"Tagae "D"fg"A"ae|"Bm"fd"E"Be "A"cAAg|
"A"aece "D"fe"A"ce|"E7"dB"A"cA "E"BAFA|"A"acEA ceae|"Bm"fd"E"Be "A"cA A2||

